public/images/hashed/4d5a0e3f3b28fe4580f96cdf7c07cbe9.svg

<?xml version="1.0" encoding="UTF-8"?>
<svg width="80px" height="80px" viewBox="0 0 80 80" version="1.1" xmlns="http://www.w3.org/2000/svg" xmlns:xlink="http://www.w3.org/1999/xlink">
    <!-- Generator: Sketch 64 (93537) - https://sketch.com -->
    <title>Icon-Architecture/64/Arch_AWS-Serverless-Application-Repository_64</title>
    <desc>Created with Sketch.</desc>
    <defs>
        <linearGradient x1="0%" y1="100%" x2="100%" y2="0%" id="linearGradient-1">
            <stop stop-color="#C8511B" offset="0%"></stop>
            <stop stop-color="#FF9900" offset="100%"></stop>
        </linearGradient>
    </defs>
    <g id="Icon-Architecture/64/Arch_AWS-Serverless-Application-Repository_64" stroke="none" stroke-width="1" fill="none" fill-rule="evenodd">
        <g id="Icon-Architecture-BG/64/Compute" fill="url(#linearGradient-1)">
            <rect id="Rectangle" x="0" y="0" width="80" height="80"></rect>
        </g>
        <path d="M57.28,55.9855103 L23.8,55.9855103 C19.384,55.9855103 14.281,52.7099502 14.02,48.0161893 C14.018,47.9869792 14.017,47.9567618 14.015,47.9275517 L25.336,47.9275517 C25.745,47.9275517 26.112,47.6767478 26.264,47.295002 C26.416,46.9122489 26.322,46.4761119 26.026,46.1910616 C25.531,45.7166493 25.259,45.0810778 25.259,44.4032021 C25.259,43.0363708 26.362,41.9253798 27.718,41.9253798 C29.075,41.9253798 30.178,43.0363708 30.178,44.4032021 C30.178,45.0810778 29.906,45.7166493 29.411,46.1910616 C29.115,46.4761119 29.021,46.9122489 29.173,47.295002 C29.325,47.6767478 29.692,47.9275517 30.101,47.9275517 L41.33,47.9275517 C41.16,48.405993 41.071,48.9136444 41.071,49.4374117 C41.071,51.9142267 43.072,53.9297236 45.531,53.9297236 C47.99,53.9297236 49.991,51.9142267 49.991,49.4374117 C49.991,48.9136444 49.902,48.405993 49.732,47.9275517 L65.993,47.9275517 C65.757,55.1887797 59.849,55.9855103 57.28,55.9855103 L57.28,55.9855103 Z M20.659,39.0648045 C21.149,38.9429278 21.472,38.4715373 21.413,37.9669076 C21.351,37.4562345 21.322,36.9505976 21.322,36.4197795 C21.322,31.797533 24.612,26.8167074 28.812,25.0802173 C31.204,24.0941246 33.661,23.8060526 36,24.1807476 L36,35.4528245 C36,35.8647876 36.249,36.236461 36.63,36.388555 C37.009,36.5406489 37.444,36.4459679 37.725,36.145809 C38.703,35.109354 40.474,35.1748249 41.381,36.2545914 C41.857,36.8216702 42.051,37.5458793 41.926,38.2932549 C41.773,39.2048115 41.081,39.9864335 40.204,40.2372374 C39.294,40.4960994 38.366,40.2452954 37.725,39.5643979 C37.443,39.2642389 37.008,39.1685507 36.63,39.3216519 C36.249,39.4737459 36,39.8454192 36,40.2573823 L36,45.9130621 L31.92,45.9130621 C32.09,45.4346208 32.178,44.9269694 32.178,44.4032021 C32.178,41.926387 30.177,39.9108901 27.718,39.9108901 C25.259,39.9108901 23.259,41.926387 23.259,44.4032021 C23.259,44.9269694 23.347,45.4346208 23.517,45.9130621 L14.096,45.9130621 C14.737,41.2525402 18.395,39.6268471 20.659,39.0648045 L20.659,39.0648045 Z M38,24.6712759 C39.868,25.2957677 41.619,26.3674762 43.148,27.8652492 C44.641,29.3237397 45.864,31.2798092 46.686,33.5219362 C46.813,33.8674212 47.116,34.1152034 47.476,34.1695946 C47.84,34.2260003 48.199,34.0759208 48.42,33.7848271 C49.343,32.5660608 50.715,31.8670329 52.182,31.8670329 C54.346,31.8670329 56.968,33.4655305 57.232,37.9709366 C57.259,38.4272185 57.588,38.8089643 58.033,38.8986091 C61.318,39.5633907 65.173,41.3300981 65.884,45.9130621 L47.914,45.9130621 C47.505,45.9130621 47.137,46.163866 46.985,46.5456118 C46.834,46.9283648 46.927,47.3645019 47.223,47.6495521 C47.718,48.1239645 47.991,48.7595359 47.991,49.4374117 C47.991,50.8042429 46.887,51.915234 45.531,51.915234 C44.175,51.915234 43.071,50.8042429 43.071,49.4374117 C43.071,48.7595359 43.343,48.1239645 43.839,47.6495521 C44.134,47.3645019 44.228,46.9283648 44.077,46.5456118 C43.925,46.163866 43.557,45.9130621 43.148,45.9130621 L38,45.9130621 L38,42.0855317 C38.865,42.3977776 39.822,42.4400819 40.75,42.1751765 C42.38,41.7088221 43.616,40.3168098 43.898,38.6276602 C44.119,37.3051478 43.758,35.9665194 42.907,34.9532311 C41.725,33.5451028 39.704,33.0042123 38,33.6236679 L38,24.6712759 Z M68,46.9203069 C68,46.8477853 67.992,46.7762709 67.977,46.7087855 C67.689,41.7934307 64.592,38.4111026 59.162,37.0875829 C58.578,32.097692 55.301,29.8525433 52.182,29.8525433 C50.629,29.8525433 49.156,30.394441 47.966,31.3765047 C47.08,29.4526671 45.912,27.7594885 44.542,26.4198529 C40.043,22.0131568 33.88,20.8155427 28.053,23.2158071 C23.076,25.2746155 19.322,30.9514474 19.322,36.4197795 C19.322,36.7340399 19.331,37.0412496 19.349,37.3454375 C16.717,38.190516 12.298,40.5333674 12.014,46.7500825 C12.005,46.805481 12,46.8618867 12,46.9203069 C12,46.953546 12.002,46.9857778 12.005,47.0190169 C12.002,47.1398863 12,47.2617629 12,47.385654 C12,47.6455232 12.01,47.8802112 12.023,48.1229572 C12.351,54.0314554 18.378,58 23.8,58 L57.28,58 C59.795,58 68,57.2415446 68,47.4742915 C68,47.328241 67.998,47.1831978 67.993,47.040169 C67.998,47.0008865 68,46.9616039 68,46.9203069 L68,46.9203069 Z" id="AWS-Serverless-Application-Repository_Icon_64_Squid" fill="#FFFFFF"></path>
    </g>
</svg>

<svg xmlns="http://www.w3.org/2000/svg" width="80" height="80"><defs><linearGradient id="a" x1="0%" x2="100%" y1="100%" y2="0%"><stop offset="0%" stop-color="#C8511B"/><stop offset="100%" stop-color="#F90"/></linearGradient></defs><g fill="none" fill-rule="evenodd"><path fill="url(#a)" d="M0 0h80v80H0z"/><path fill="#FFF" d="M57.28 55.986H23.8c-4.416 0-9.519-3.276-9.78-7.97l-.005-.088h11.321a1 1 0 0 0 .928-.633 1.013 1.013 0 0 0-.238-1.104 2.458 2.458 0 0 1-.767-1.788 2.47 2.47 0 0 1 2.459-2.478 2.471 2.471 0 0 1 2.46 2.478c0 .678-.272 1.314-.767 1.788-.296.285-.39.721-.238 1.104a1 1 0 0 0 .928.633H41.33c-.17.478-.259.986-.259 1.51 0 2.476 2.001 4.492 4.46 4.492s4.46-2.016 4.46-4.493c0-.523-.089-1.031-.259-1.51h16.261c-.236 7.262-6.144 8.059-8.713 8.059ZM20.659 39.065c.49-.122.813-.593.754-1.098a12.704 12.704 0 0 1-.091-1.547c0-4.622 3.29-9.603 7.49-11.34 2.392-.986 4.849-1.274 7.188-.9v11.273c0 .412.249.783.63.936a.993.993 0 0 0 1.095-.243c.978-1.037 2.749-.971 3.656.109.476.567.67 1.29.545 2.038-.153.912-.845 1.693-1.722 1.944a2.433 2.433 0 0 1-2.479-.673.992.992 0 0 0-1.095-.242c-.381.152-.63.523-.63.935v5.656h-4.08c.17-.478.258-.986.258-1.51 0-2.477-2.001-4.492-4.46-4.492s-4.459 2.015-4.459 4.492c0 .524.088 1.032.258 1.51h-9.421c.641-4.66 4.299-6.286 6.563-6.848ZM38 24.67c1.868.625 3.619 1.696 5.148 3.194 1.493 1.459 2.716 3.415 3.538 5.657.127.345.43.593.79.648a.992.992 0 0 0 .944-.385c.923-1.219 2.295-1.918 3.762-1.918 2.164 0 4.786 1.599 5.05 6.104.027.456.356.838.801.928 3.285.664 7.14 2.431 7.851 7.014h-17.97c-.409 0-.777.25-.929.633-.151.382-.058.819.238 1.104a2.472 2.472 0 0 1-1.692 4.266 2.472 2.472 0 0 1-2.46-2.479c0-.677.272-1.313.768-1.787.295-.285.389-.722.238-1.104a1.001 1.001 0 0 0-.929-.633H38v-3.827a4.467 4.467 0 0 0 2.75.09 4.461 4.461 0 0 0 3.148-3.548 4.537 4.537 0 0 0-.991-3.675c-1.182-1.408-3.203-1.949-4.907-1.33v-8.952Zm30 22.25a.98.98 0 0 0-.023-.212c-.288-4.916-3.385-8.298-8.815-9.621-.584-4.99-3.861-7.235-6.98-7.235a6.595 6.595 0 0 0-4.216 1.524c-.886-1.924-2.054-3.618-3.424-4.957-4.499-4.407-10.662-5.604-16.489-3.204-4.977 2.059-8.731 7.735-8.731 13.204 0 .314.009.621.027.925-2.632.846-7.051 3.188-7.335 9.405a1.057 1.057 0 0 0-.009.269 13.407 13.407 0 0 0 .018 1.104C12.351 54.031 18.378 58 23.8 58h33.48C59.795 58 68 57.242 68 47.474c0-.146-.002-.29-.007-.434a.941.941 0 0 0 .007-.12Z"/></g></svg>
